static/images/icons/archetype.svg

<svg fill="none" height="80" viewBox="0 0 58 80" width="58" xmlns="http://www.w3.org/2000/svg"><path d="m1.22762.440087c-.21304.04065-.404876.155254-.541644.323583-.136768.16833-.209674.37956-.205853.59642v77.28001c.000025.244.096961.478.26949.6505.172528.1725.406517.2695.650507.2695h13.79998c.1219.0017.243-.0208.3561-.0663.1131-.0454.2161-.1129.3029-.1985s.1558-.1876.2028-.3001c.0471-.1125.0713-.2332.0713-.3551s-.0242-.2426-.0713-.3551c-.047-.1125-.116-.2145-.2028-.3001s-.1898-.1531-.3029-.1985c-.1131-.0455-.2342-.068-.3561-.0663h-12.87998v-75.44001h53.35998v75.44001h-34.96c-.1219-.0017-.2429.0208-.3561.0663-.1131.0454-.2161.1129-.3029.1985s-.1557.1876-.2028.3001c-.047.1125-.0713.2332-.0713.3551s.0243.2426.0713.3551c.0471.1125.116.2145.2028.3001s.1898.1531.3029.1985c.1132.0455.2342.068.3561.0663h35.88c.244 0 .478-.097.6505-.2695.1726-.1725.2695-.4065.2695-.6505v-77.28001c0-.24399-.0969-.477986-.2695-.650515-.1725-.172528-.4065-.269464-.6505-.269488h-55.19998c-.05737-.005402-.11512-.005402-.1725 0zm19.49248 10.120013c-3.5458 0-6.44 2.8942-6.44 6.44 0 1.3575.4274 2.6106 1.15 3.6512-3.4437 1.9662-5.74998 5.7932-5.74998 10.1488.00003.244.09696.478.26949.6505.17249.1725.40649.2695.65049.2695h20.24c.244 0 .478-.097.6505-.2695.1726-.1725.2695-.4065.2695-.6505 0-4.3556-2.3062-8.1826-5.75-10.1488.7226-1.0406 1.15-2.2937 1.15-3.6512 0-3.5458-2.8942-6.44-6.44-6.44zm0 1.84c2.5514 0 4.6 2.0486 4.6 4.6s-2.0486 4.6-4.6 4.6-4.6-2.0486-4.6-4.6 2.0486-4.6 4.6-4.6zm-3.9675 9.66c1.0969.8656 2.468 1.38 3.9675 1.38s2.8707-.5144 3.9675-1.38c2.8157 1.4288 4.7709 4.3613 5.0888 7.82h-18.1125c.3178-3.4587 2.2731-6.3912 5.0887-7.82zm-6.325 17.02c-.244.0229-.46889.1417-.62525.3304s-.23135.4318-.20848.6758c.02288.244.14174.469.33045.6253.18868.1564.43178.2314.67578.2085h36.8c.1219.0017.243-.0208.3561-.0663.1131-.0454.2161-.1129.3029-.1985s.1558-.1876.2028-.3001c.0471-.1125.0713-.2332.0713-.3551s-.0242-.2426-.0713-.3551c-.047-.1125-.116-.2145-.2028-.3001s-.1898-.1531-.3029-.1986c-.1131-.0454-.2342-.0679-.3561-.0662h-36.8c-.0573-.0054-.1151-.0054-.1725 0zm0 6.44c-.244.0229-.46889.1417-.62525.3304-.07742.0935-.13568.2013-.17145.3172-.03577.116-.04835.2378-.03703.3586.01133.1209.04634.2383.10304.3455.0567.1073.13397.2024.22741.2798.18868.1564.43178.2314.67578.2085h36.8c.1219.0017.243-.0208.3561-.0663.1131-.0454.2161-.1129.3029-.1985s.1558-.1876.2028-.3001c.0471-.1125.0713-.2332.0713-.3551s-.0242-.2426-.0713-.3551c-.047-.1125-.116-.2145-.2028-.3001s-.1898-.1531-.3029-.1986c-.1131-.0454-.2342-.0679-.3561-.0662h-36.8c-.0573-.0054-.1151-.0054-.1725 0zm0 6.44c-.244.0229-.46889.1417-.62525.3304s-.23135.4318-.20848.6758c.02288.244.14174.469.33045.6253.18868.1564.43178.2314.67578.2085h36.8c.1219.0017.243-.0208.3561-.0663.1131-.0454.2161-.1129.3029-.1985s.1558-.1876.2028-.3001c.0471-.1125.0713-.2332.0713-.3551s-.0242-.2426-.0713-.3551c-.047-.1125-.116-.2145-.2028-.3001s-.1898-.1531-.3029-.1986c-.1131-.0454-.2342-.0679-.3561-.0662h-36.8c-.0573-.0054-.1151-.0054-.1725 0zm0 6.44c-.244.0229-.46889.1417-.62525.3304s-.23135.4318-.20848.6758c.02288.244.14174.469.33045.6253.18868.1564.43178.2314.67578.2085h18.4c.1219.0017.243-.0208.3561-.0663.1131-.0454.2161-.1129.3029-.1985s.1558-.1876.2028-.3001c.0471-.1125.0713-.2332.0713-.3551s-.0242-.2426-.0713-.3551c-.047-.1125-.116-.2145-.2028-.3001s-.1898-.1531-.3029-.1986c-.1131-.0454-.2342-.0679-.3561-.0662h-18.4c-.0573-.0054-.1151-.0054-.1725 0zm22.08 9.2c-.244.0229-.4689.1417-.6253.3304-.1563.1887-.2313.4318-.2084.6758.0228.244.1417.469.3304.6253.1887.1564.4318.2314.6758.2085h14.72c.1219.0017.243-.0208.3561-.0663.1131-.0454.2161-.1129.3029-.1985s.1558-.1876.2028-.3001c.0471-.1125.0713-.2332.0713-.3551s-.0242-.2426-.0713-.3551c-.047-.1125-.116-.2145-.2028-.3001s-.1898-.1531-.3029-.1985c-.1131-.0455-.2342-.068-.3561-.0663h-14.72c-.0573-.0054-.1151-.0054-.1725 0z" fill="currentColor"/></svg>

<svg width="58" height="80" viewBox="0 0 58 80" fill="none" xmlns="http://www.w3.org/2000/svg">
<path d="M1.22762 0.440087C1.01458 0.480737 0.822744 0.595341 0.685976 0.76367C0.549208 0.932 0.476302 1.14323 0.480123 1.36009V78.6401C0.480148 78.8841 0.577084 79.1181 0.749613 79.2906C0.922141 79.4631 1.15613 79.5601 1.40012 79.5601H15.2001C15.322 79.5618 15.4431 79.5393 15.5562 79.4938C15.6693 79.4484 15.7723 79.3809 15.8591 79.2953C15.9459 79.2097 16.0149 79.1077 16.0619 78.9952C16.109 78.8827 16.1332 78.762 16.1332 78.6401C16.1332 78.5182 16.109 78.3975 16.0619 78.285C16.0149 78.1725 15.9459 78.0705 15.8591 77.9849C15.7723 77.8993 15.6693 77.8318 15.5562 77.7864C15.4431 77.7409 15.322 77.7184 15.2001 77.7201H2.32012V2.28009H55.6801V77.7201H20.7201C20.5982 77.7184 20.4772 77.7409 20.364 77.7864C20.2509 77.8318 20.1479 77.8993 20.0611 77.9849C19.9743 78.0705 19.9054 78.1725 19.8583 78.285C19.8113 78.3975 19.787 78.5182 19.787 78.6401C19.787 78.762 19.8113 78.8827 19.8583 78.9952C19.9054 79.1077 19.9743 79.2097 20.0611 79.2953C20.1479 79.3809 20.2509 79.4484 20.364 79.4938C20.4772 79.5393 20.5982 79.5618 20.7201 79.5601H56.6001C56.8441 79.5601 57.0781 79.4631 57.2506 79.2906C57.4232 79.1181 57.5201 78.8841 57.5201 78.6401V1.36009C57.5201 1.1161 57.4232 0.882104 57.2506 0.709575C57.0781 0.537047 56.8441 0.440111 56.6001 0.440087H1.40012C1.34275 0.434685 1.285 0.434685 1.22762 0.440087V0.440087ZM20.7201 10.5601C17.1743 10.5601 14.2801 13.4543 14.2801 17.0001C14.2801 18.3576 14.7075 19.6107 15.4301 20.6513C11.9864 22.6175 9.68012 26.4445 9.68012 30.8001C9.68015 31.0441 9.77708 31.2781 9.94961 31.4506C10.1221 31.6231 10.3561 31.7201 10.6001 31.7201H30.8401C31.0841 31.7201 31.3181 31.6231 31.4906 31.4506C31.6632 31.2781 31.7601 31.0441 31.7601 30.8001C31.7601 26.4445 29.4539 22.6175 26.0101 20.6513C26.7327 19.6107 27.1601 18.3576 27.1601 17.0001C27.1601 13.4543 24.2659 10.5601 20.7201 10.5601ZM20.7201 12.4001C23.2715 12.4001 25.3201 14.4487 25.3201 17.0001C25.3201 19.5515 23.2715 21.6001 20.7201 21.6001C18.1687 21.6001 16.1201 19.5515 16.1201 17.0001C16.1201 14.4487 18.1687 12.4001 20.7201 12.4001ZM16.7526 22.0601C17.8495 22.9257 19.2206 23.4401 20.7201 23.4401C22.2196 23.4401 23.5908 22.9257 24.6876 22.0601C27.5033 23.4889 29.4585 26.4214 29.7764 29.8801H11.6639C11.9817 26.4214 13.937 23.4889 16.7526 22.0601ZM10.4276 39.0801C10.1836 39.103 9.95871 39.2218 9.80235 39.4105C9.64599 39.5992 9.571 39.8423 9.59387 40.0863C9.61675 40.3303 9.73561 40.5553 9.92432 40.7116C10.113 40.868 10.3561 40.943 10.6001 40.9201H47.4001C47.522 40.9218 47.6431 40.8993 47.7562 40.8538C47.8693 40.8084 47.9723 40.7409 48.0591 40.6553C48.1459 40.5697 48.2149 40.4677 48.2619 40.3552C48.309 40.2427 48.3332 40.122 48.3332 40.0001C48.3332 39.8782 48.309 39.7575 48.2619 39.645C48.2149 39.5325 48.1459 39.4305 48.0591 39.3449C47.9723 39.2593 47.8693 39.1918 47.7562 39.1463C47.6431 39.1009 47.522 39.0784 47.4001 39.0801H10.6001C10.5428 39.0747 10.485 39.0747 10.4276 39.0801ZM10.4276 45.5201C10.1836 45.543 9.95871 45.6618 9.80235 45.8505C9.72493 45.944 9.66667 46.0518 9.6309 46.1677C9.59513 46.2837 9.58255 46.4055 9.59387 46.5263C9.6052 46.6472 9.64021 46.7646 9.69691 46.8718C9.75361 46.9791 9.83088 47.0742 9.92432 47.1516C10.113 47.308 10.3561 47.383 10.6001 47.3601H47.4001C47.522 47.3618 47.6431 47.3393 47.7562 47.2938C47.8693 47.2484 47.9723 47.1809 48.0591 47.0953C48.1459 47.0097 48.2149 46.9077 48.2619 46.7952C48.309 46.6827 48.3332 46.562 48.3332 46.4401C48.3332 46.3182 48.309 46.1975 48.2619 46.085C48.2149 45.9725 48.1459 45.8705 48.0591 45.7849C47.9723 45.6993 47.8693 45.6318 47.7562 45.5863C47.6431 45.5409 47.522 45.5184 47.4001 45.5201H10.6001C10.5428 45.5147 10.485 45.5147 10.4276 45.5201ZM10.4276 51.9601C10.1836 51.983 9.95871 52.1018 9.80235 52.2905C9.64599 52.4792 9.571 52.7223 9.59387 52.9663C9.61675 53.2103 9.73561 53.4353 9.92432 53.5916C10.113 53.748 10.3561 53.823 10.6001 53.8001H47.4001C47.522 53.8018 47.6431 53.7793 47.7562 53.7338C47.8693 53.6884 47.9723 53.6209 48.0591 53.5353C48.1459 53.4497 48.2149 53.3477 48.2619 53.2352C48.309 53.1227 48.3332 53.002 48.3332 52.8801C48.3332 52.7582 48.309 52.6375 48.2619 52.525C48.2149 52.4125 48.1459 52.3105 48.0591 52.2249C47.9723 52.1393 47.8693 52.0718 47.7562 52.0263C47.6431 51.9809 47.522 51.9584 47.4001 51.9601H10.6001C10.5428 51.9547 10.485 51.9547 10.4276 51.9601V51.9601ZM10.4276 58.4001C10.1836 58.423 9.95871 58.5418 9.80235 58.7305C9.64599 58.9192 9.571 59.1623 9.59387 59.4063C9.61675 59.6503 9.73561 59.8753 9.92432 60.0316C10.113 60.188 10.3561 60.263 10.6001 60.2401H29.0001C29.122 60.2418 29.2431 60.2193 29.3562 60.1738C29.4693 60.1284 29.5723 60.0609 29.6591 59.9753C29.7459 59.8897 29.8149 59.7877 29.8619 59.6752C29.909 59.5627 29.9332 59.442 29.9332 59.3201C29.9332 59.1982 29.909 59.0775 29.8619 58.965C29.8149 58.8525 29.7459 58.7505 29.6591 58.6649C29.5723 58.5793 29.4693 58.5118 29.3562 58.4663C29.2431 58.4209 29.122 58.3984 29.0001 58.4001H10.6001C10.5428 58.3947 10.485 58.3947 10.4276 58.4001V58.4001ZM32.5076 67.6001C32.2636 67.623 32.0387 67.7418 31.8823 67.9305C31.726 68.1192 31.651 68.3623 31.6739 68.6063C31.6967 68.8503 31.8156 69.0753 32.0043 69.2316C32.193 69.388 32.4361 69.463 32.6801 69.4401H47.4001C47.522 69.4418 47.6431 69.4193 47.7562 69.3738C47.8693 69.3284 47.9723 69.2609 48.0591 69.1753C48.1459 69.0897 48.2149 68.9877 48.2619 68.8752C48.309 68.7627 48.3332 68.642 48.3332 68.5201C48.3332 68.3982 48.309 68.2775 48.2619 68.165C48.2149 68.0525 48.1459 67.9505 48.0591 67.8649C47.9723 67.7793 47.8693 67.7118 47.7562 67.6664C47.6431 67.6209 47.522 67.5984 47.4001 67.6001H32.6801C32.6228 67.5947 32.565 67.5947 32.5076 67.6001V67.6001Z" fill="currentColor"/>
</svg>
